build/images/fb-icons/mrf.svg

<svg xmlns="http://www.w3.org/2000/svg" preserveAspectRatio="xMidYMid" width="18" height="21" viewBox="0 0 18 21"><defs><style>.cls-1{fill:#646464;fill-rule:evenodd}</style></defs><path d="M14.895 10.597a.754.754 0 0 1-.757-.748V1.496H1.515v15.585h5.806c.417 0 .758.336.758.748a.755.755 0 0 1-.758.748H.757A.755.755 0 0 1 0 17.829V.748C0 .337.341 0 .757 0h14.138c.416 0 .757.337.757.748v9.101a.755.755 0 0 1-.757.748zM4.544 12.468h2.02c.416 0 .757.336.757.748a.755.755 0 0 1-.757.748h-2.02a.755.755 0 0 1-.757-.748c0-.412.341-.748.757-.748zM11.36 5.86H4.544a.755.755 0 0 1-.757-.748c0-.412.341-.748.757-.748h6.816c.417 0 .758.336.758.748a.755.755 0 0 1-.758.748zm0 4.114H4.544a.755.755 0 0 1-.757-.748c0-.411.341-.748.757-.748h6.817c.416 0 .757.337.757.748a.755.755 0 0 1-.758.748zm.397 4.38l1.547-3.046 1.548 3.046 3.147.656-2.191 2.538.398 3.452-2.902-1.477L10.403 21l.397-3.452-2.191-2.538 3.148-.656z" class="cls-1"/></svg>

<svg xmlns="http://www.w3.org/2000/svg" xmlns:xlink="http://www.w3.org/1999/xlink" preserveAspectRatio="xMidYMid" width="18" height="21" viewBox="0 0 18 21">
  <defs>
    <style>
      .cls-1 {
        fill: #646464;
        fill-rule: evenodd;
      }
    </style>
  </defs>
  <path d="M14.895,10.597 C14.478,10.597 14.138,10.261 14.138,9.849 L14.138,1.496 L1.515,1.496 L1.515,17.081 L7.321,17.081 C7.738,17.081 8.079,17.417 8.079,17.829 C8.079,18.240 7.738,18.577 7.321,18.577 L0.757,18.577 C0.341,18.577 -0.000,18.240 -0.000,17.829 L-0.000,0.748 C-0.000,0.337 0.341,-0.000 0.757,-0.000 L14.895,-0.000 C15.311,-0.000 15.652,0.337 15.652,0.748 L15.652,9.849 C15.652,10.261 15.311,10.597 14.895,10.597 ZM4.544,12.468 L6.564,12.468 C6.980,12.468 7.321,12.804 7.321,13.216 C7.321,13.627 6.980,13.964 6.564,13.964 L4.544,13.964 C4.128,13.964 3.787,13.627 3.787,13.216 C3.787,12.804 4.128,12.468 4.544,12.468 ZM11.360,5.860 L4.544,5.860 C4.128,5.860 3.787,5.523 3.787,5.112 C3.787,4.700 4.128,4.364 4.544,4.364 L11.360,4.364 C11.777,4.364 12.118,4.700 12.118,5.112 C12.118,5.523 11.777,5.860 11.360,5.860 ZM11.360,9.974 L4.544,9.974 C4.128,9.974 3.787,9.638 3.787,9.226 C3.787,8.815 4.128,8.478 4.544,8.478 L11.361,8.478 C11.777,8.478 12.118,8.815 12.118,9.226 C12.118,9.638 11.777,9.974 11.360,9.974 ZM11.757,14.354 L13.304,11.308 L14.852,14.354 L17.999,15.010 L15.808,17.548 L16.206,21.000 L13.304,19.523 L10.403,21.000 L10.800,17.548 L8.609,15.010 L11.757,14.354 Z" class="cls-1"/>
</svg>
